assets/img/accessibility-eye-card.svg

<svg viewBox="0 0 99 100" fill="none" xmlns="http://www.w3.org/2000/svg">
<ellipse cx="49.5" cy="50" rx="49.5" ry="50" fill="white"/>
<path d="M49.5462 60.5495C52.6402 60.5495 55.2701 59.5086 57.4358 57.4269C59.6016 55.3452 60.6845 52.8173 60.6845 49.8434C60.6845 46.8695 59.6016 44.3417 57.4358 42.26C55.2701 40.1782 52.6402 39.1374 49.5462 39.1374C46.4523 39.1374 43.8224 40.1782 41.6566 42.26C39.4908 44.3417 38.4079 46.8695 38.4079 49.8434C38.4079 52.8173 39.4908 55.3452 41.6566 57.4269C43.8224 59.5086 46.4523 60.5495 49.5462 60.5495ZM49.5462 56.2671C47.6898 56.2671 46.1119 55.6426 44.8125 54.3935C43.513 53.1445 42.8633 51.6278 42.8633 49.8434C42.8633 48.0591 43.513 46.5424 44.8125 45.2934C46.1119 44.0443 47.6898 43.4198 49.5462 43.4198C51.4026 43.4198 52.9805 44.0443 54.28 45.2934C55.5795 46.5424 56.2292 48.0591 56.2292 49.8434C56.2292 51.6278 55.5795 53.1445 54.28 54.3935C52.9805 55.6426 51.4026 56.2671 49.5462 56.2671ZM49.5462 67.6869C44.0183 67.6869 38.9752 66.2594 34.4167 63.4045C29.8583 60.5495 26.259 56.7826 23.6188 52.1036C23.4125 51.7467 23.2578 51.38 23.1547 51.0033C23.0516 50.6266 23 50.24 23 49.8434C23 49.4469 23.0516 49.0603 23.1547 48.6836C23.2578 48.3069 23.4125 47.9401 23.6188 47.5833C26.259 42.9043 29.8583 39.1374 34.4167 36.2824C38.9752 33.4275 44.0183 32 49.5462 32C55.0741 32 60.1173 33.4275 64.6757 36.2824C69.2342 39.1374 72.8335 42.9043 75.4737 47.5833C75.6799 47.9401 75.8346 48.3069 75.9377 48.6836C76.0409 49.0603 76.0924 49.4469 76.0924 49.8434C76.0924 50.24 76.0409 50.6266 75.9377 51.0033C75.8346 51.38 75.6799 51.7467 75.4737 52.1036C72.8335 56.7826 69.2342 60.5495 64.6757 63.4045C60.1173 66.2594 55.0741 67.6869 49.5462 67.6869ZM49.5462 62.9286C54.2078 62.9286 58.4878 61.749 62.3862 59.3897C66.2846 57.0304 69.2651 53.8483 71.3277 49.8434C69.2651 45.8386 66.2846 42.6565 62.3862 40.2972C58.4878 37.9379 54.2078 36.7583 49.5462 36.7583C44.8846 36.7583 40.6047 37.9379 36.7063 40.2972C32.8079 42.6565 29.8274 45.8386 27.7647 49.8434C29.8274 53.8483 32.8079 57.0304 36.7063 59.3897C40.6047 61.749 44.8846 62.9286 49.5462 62.9286Z" fill="#154973"/>
</svg>

<svg xmlns="http://www.w3.org/2000/svg" fill="none" viewBox="0 0 99 100"><ellipse cx="49.5" cy="50" fill="#fff" rx="49.5" ry="50"/><path fill="#154973" d="M49.546 60.55q4.641 0 7.89-3.123t3.249-7.584-3.25-7.583-7.889-3.123-7.89 3.123-3.248 7.583 3.249 7.584 7.89 3.123m0-4.283q-2.784 0-4.733-1.873-1.95-1.874-1.95-4.55 0-2.678 1.95-4.55 1.949-1.874 4.733-1.874 2.785 0 4.734 1.873 1.95 1.875 1.95 4.55 0 2.677-1.95 4.55-1.95 1.874-4.734 1.874m0 11.42q-8.291 0-15.13-4.282-6.837-4.282-10.797-11.301a4.6 4.6 0 0 1-.464-1.1 4.4 4.4 0 0 1-.155-1.16q0-.596.155-1.16.155-.566.464-1.1 3.96-7.02 10.798-11.302Q41.254 32 49.547 32q8.29 0 15.129 4.282 6.837 4.282 10.798 11.301.309.536.464 1.1.154.566.154 1.16 0 .596-.154 1.16a4.7 4.7 0 0 1-.464 1.1q-3.96 7.02-10.798 11.301-6.838 4.283-15.13 4.283m0-4.758q6.993 0 12.84-3.54 5.849-3.538 8.942-9.546-3.094-6.007-8.942-9.546-5.847-3.54-12.84-3.539t-12.84 3.54q-5.848 3.537-8.941 9.545 3.094 6.007 8.941 9.547 5.849 3.539 12.84 3.539"/></svg>
